X:30
%%titlespace -15
%%musicspace -20
T:Shamrocks in the Galax
M:4/4
L:1/8
K:Bm
"Bm"BAFA BAFA | BABc dcde | fBcB dBcB | "F#m"A2 F2 A2 F2 | 
"Bm"BAFA BAFA | BABc dcde | "Bm"fBcB "F#m"dcBA |1 "Bm"B8 :|]2 B6 ||
[|:AB | "D"dBAF ABde | fefg a3 a | "A"gfed cdef | gfed cdec | 
"D"dBAF ABde | fefg a2 fa | "A"gfed cdec |1 "D"d6 :|]2 "D"d2 f2 "F#7"ed c2 |]

%%scale 0.8
%%newpage

